public/img/wavedashboard.svg

<?xml version="1.0" encoding="utf-8"?>
<!-- Generator: Adobe Illustrator 24.3.0, SVG Export Plug-In . SVG Version: 6.00 Build 0)  -->
<svg version="1.1" id="Layer_1" xmlns="http://www.w3.org/2000/svg" xmlns:xlink="http://www.w3.org/1999/xlink" x="0px" y="0px"
	 viewBox="0 0 1440 320" style="enable-background:new 0 0 1440 320;" xml:space="preserve">
<style type="text/css">
	.st0{fill:#BDF0F4;}
</style>
<path class="st0" d="M0,123l16.4,62.2c4.1,15.4,24.4,18.7,33.1,5.4c8.1-12.3,18.7-25.8,37.5-30.6c40-10.7,113,64,153,16
	S320,64,360,64s80,64,120,101.3c40,37.7,80,47.7,120,16C640,149,680,75,720,69.3C760,64,800,128,840,160s80,32,120,48s80,48,120,32
	s80-80,120-90.7c40-10.3,80,31.7,120,37.4c40,5.3,80-26.7,100-42.7l20-16v192h-20c-20,0-60,0-100,0s-80,0-120,0s-80,0-120,0
	s-80,0-120,0s-80,0-120,0s-80,0-120,0s-80,0-120,0s-80,0-120,0s-80,0-120,0s-80,0-120,0s-80,0-120,0s-80,0-100,0H0V123z"/>
</svg>

<?xml version="1.0" standalone="no"?><svg xmlns="http://www.w3.org/2000/svg" viewBox="0 0 1440 320"><path fill="#90e0ef" fill-opacity="1" d="M0,256L20,261.3C40,267,80,277,120,266.7C160,256,200,224,240,176C280,128,320,64,360,64C400,64,440,128,480,165.3C520,203,560,213,600,181.3C640,149,680,75,720,69.3C760,64,800,128,840,160C880,192,920,192,960,208C1000,224,1040,256,1080,240C1120,224,1160,160,1200,149.3C1240,139,1280,181,1320,186.7C1360,192,1400,160,1420,144L1440,128L1440,320L1420,320C1400,320,1360,320,1320,320C1280,320,1240,320,1200,320C1160,320,1120,320,1080,320C1040,320,1000,320,960,320C920,320,880,320,840,320C800,320,760,320,720,320C680,320,640,320,600,320C560,320,520,320,480,320C440,320,400,320,360,320C320,320,280,320,240,320C200,320,160,320,120,320C80,320,40,320,20,320L0,320Z"></path></svg>
